1-js/08-prototypes/01-prototype-inheritance/rabbit-animal-object.svg

<svg xmlns="http://www.w3.org/2000/svg" width="233" height="344" viewBox="0 0 233 344"><defs><style>@import url(https://fonts.googleapis.com/css?family=Open+Sans:bold,italic,bolditalic%7CPT+Mono);@font-face{font-family:&apos;PT Mono&apos;;font-weight:700;font-style:normal;src:local(&apos;PT MonoBold&apos;),url(/font/PTMonoBold.woff2) format(&apos;woff2&apos;),url(/font/PTMonoBold.woff) format(&apos;woff&apos;),url(/font/PTMonoBold.ttf) format(&apos;truetype&apos;)}</style></defs><g id="inheritance" fill="none" fill-rule="evenodd" stroke="none" stroke-width="1"><g id="rabbit-animal-object.svg"><path id="Rectangle-1" fill="#FFF9EB" stroke="#E8C48E" stroke-width="2" d="M14 96h218v58H14z"/><text id="toString:-function" fill="#8A704D" font-family="PTMono-Regular, PT Mono" font-size="14" font-weight="normal"><tspan x="24" y="113">toString: function</tspan> <tspan x="24" y="128">hasOwnProperty: function</tspan> <tspan x="24" y="143">...</tspan></text><text id="Object.prototype" fill="#8A704D" font-family="PTMono-Regular, PT Mono" font-size="14" font-weight="normal"><tspan x="13" y="88">Object.prototype</tspan></text><path id="Rectangle-1" fill="#FFF9EB" stroke="#E8C48E" stroke-width="2" d="M14 213h218v28H14z"/><text id="animal" fill="#8A704D" font-family="PTMono-Regular, PT Mono" font-size="14" font-weight="normal"><tspan x="13" y="205">animal</tspan></text><path id="Line" fill="#EE6B47" fill-rule="nonzero" d="M73.5 162.5l7 14h-6v28h-2v-28h-6l7-14z"/><text id="[[Prototype]]" fill="#8A704D" font-family="PTMono-Regular, PT Mono" font-size="14" font-weight="normal"><tspan x="83" y="184">[[Prototype]]</tspan></text><text id="[[Prototype]]-Copy" fill="#8A704D" font-family="PTMono-Regular, PT Mono" font-size="14" font-weight="normal"><tspan x="83" y="274">[[Prototype]]</tspan></text><path id="Line-2" fill="#EE6B47" fill-rule="nonzero" d="M73.5 30.5l7 14h-6v28h-2v-28h-6l7-14z"/><text id="[[Prototype]]" fill="#8A704D" font-family="PTMono-Regular, PT Mono" font-size="14" font-weight="normal"><tspan x="83" y="52">[[Prototype]]</tspan></text><text id="null" fill="#8A704D" font-family="PTMono-Regular, PT Mono" font-size="14" font-weight="normal"><tspan x="59" y="19">null</tspan></text><text id="eats:-true" fill="#8A704D" font-family="PTMono-Regular, PT Mono" font-size="14" font-weight="normal"><tspan x="24" y="231">eats: true</tspan></text><path id="Rectangle-1-Copy" fill="#FFF9EB" stroke="#E8C48E" stroke-width="2" d="M14 302h218v28H14z"/><text id="rabbit-copy" fill="#8A704D" font-family="PTMono-Regular, PT Mono" font-size="14" font-weight="normal"><tspan x="13" y="294">rabbit</tspan></text><path id="Line-Copy" fill="#EE6B47" fill-rule="nonzero" d="M73.5 251.5l7 14h-6v28h-2v-28h-6l7-14z"/><text id="jumps:-true" fill="#8A704D" font-family="PTMono-Regular, PT Mono" font-size="14" font-weight="normal"><tspan x="24" y="320">jumps: true</tspan></text></g></g></svg>

<?xml version="1.0" encoding="UTF-8"?>
<svg width="233px" height="344px" viewBox="0 0 233 344" version="1.1" xmlns="http://www.w3.org/2000/svg" xmlns:xlink="http://www.w3.org/1999/xlink">
    <!-- Generator: sketchtool 61.2 (101010) - https://sketch.com -->
    <title>rabbit-animal-object.svg</title>
    <desc>Created with sketchtool.</desc>
    <g id="inheritance" stroke="none" stroke-width="1" fill="none" fill-rule="evenodd">
        <g id="rabbit-animal-object.svg">
            <rect id="Rectangle-1" stroke="#E8C48E" stroke-width="2" fill="#FFF9EB" x="14" y="96" width="218" height="58"></rect>
            <text id="toString:-function" font-family="PTMono-Regular, PT Mono" font-size="14" font-weight="normal" fill="#8A704D">
                <tspan x="24" y="113">toString: function</tspan>
                <tspan x="24" y="128">hasOwnProperty: function</tspan>
                <tspan x="24" y="143">...</tspan>
            </text>
            <text id="Object.prototype" font-family="PTMono-Regular, PT Mono" font-size="14" font-weight="normal" fill="#8A704D">
                <tspan x="13" y="88">Object.prototype</tspan>
            </text>
            <rect id="Rectangle-1" stroke="#E8C48E" stroke-width="2" fill="#FFF9EB" x="14" y="213" width="218" height="28"></rect>
            <text id="animal" font-family="PTMono-Regular, PT Mono" font-size="14" font-weight="normal" fill="#8A704D">
                <tspan x="13" y="205">animal</tspan>
            </text>
            <path id="Line" d="M73.5,162.5 L80.5,176.5 L74.5,176.5 L74.5,204.5 L72.5,204.5 L72.5,176.5 L66.5,176.5 L73.5,162.5 Z" fill="#EE6B47" fill-rule="nonzero"></path>
            <text id="[[Prototype]]" font-family="PTMono-Regular, PT Mono" font-size="14" font-weight="normal" fill="#8A704D">
                <tspan x="83" y="184">[[Prototype]]</tspan>
            </text>
            <text id="[[Prototype]]-Copy" font-family="PTMono-Regular, PT Mono" font-size="14" font-weight="normal" fill="#8A704D">
                <tspan x="83" y="274">[[Prototype]]</tspan>
            </text>
            <path id="Line-2" d="M73.5,30.5 L80.5,44.5 L74.5,44.5 L74.5,72.5 L72.5,72.5 L72.5,44.5 L66.5,44.5 L73.5,30.5 Z" fill="#EE6B47" fill-rule="nonzero"></path>
            <text id="[[Prototype]]" font-family="PTMono-Regular, PT Mono" font-size="14" font-weight="normal" fill="#8A704D">
                <tspan x="83" y="52">[[Prototype]]</tspan>
            </text>
            <text id="null" font-family="PTMono-Regular, PT Mono" font-size="14" font-weight="normal" fill="#8A704D">
                <tspan x="59" y="19">null</tspan>
            </text>
            <text id="eats:-true" font-family="PTMono-Regular, PT Mono" font-size="14" font-weight="normal" fill="#8A704D">
                <tspan x="24" y="231">eats: true</tspan>
            </text>
            <rect id="Rectangle-1-Copy" stroke="#E8C48E" stroke-width="2" fill="#FFF9EB" x="14" y="302" width="218" height="28"></rect>
            <text id="rabbit-copy" font-family="PTMono-Regular, PT Mono" font-size="14" font-weight="normal" fill="#8A704D">
                <tspan x="13" y="294">rabbit</tspan>
            </text>
            <path id="Line-Copy" d="M73.5,251.5 L80.5,265.5 L74.5,265.5 L74.5,293.5 L72.5,293.5 L72.5,265.5 L66.5,265.5 L73.5,251.5 Z" fill="#EE6B47" fill-rule="nonzero"></path>
            <text id="jumps:-true" font-family="PTMono-Regular, PT Mono" font-size="14" font-weight="normal" fill="#8A704D">
                <tspan x="24" y="320">jumps: true</tspan>
            </text>
        </g>
    </g>
</svg>
